X:1
T:The rolling waves
R:Jig
S:Caro
D:Kevin Crawford: In good company
M:6/8
L:1/8
Q:3/8=120
K:G
|: F2F DED | D2d cAG | F2F DED | A2F GFE |
   F2F DED | D2d cAG | FAF GBG | A2F GFE :|
|: D2d cAd | cAd cAG | F2d cAG | A2F GFE |
   D2d cAe | fed cAG | FAF GBG | A2F GFE :|